app/img/icons/icon-instagram.svg

<svg width="30" height="30" viewBox="0 0 30 30" fill="none" xmlns="http://www.w3.org/2000/svg">
<g clip-path="url(#clip0)">
<path d="M15.0049 7.29688C10.7511 7.29688 7.30737 10.7444 7.30737 14.9944C7.30737 19.2481 10.7549 22.6919 15.0049 22.6919C19.2586 22.6919 22.7024 19.2444 22.7024 14.9944C22.7024 10.7406 19.2549 7.29688 15.0049 7.29688ZM15.0049 19.9906C12.2436 19.9906 10.0086 17.7544 10.0086 14.9944C10.0086 12.2344 12.2449 9.99813 15.0049 9.99813C17.7649 9.99813 20.0011 12.2344 20.0011 14.9944C20.0024 17.7544 17.7661 19.9906 15.0049 19.9906Z" fill="#BE9230"/>
<path d="M21.1846 0.0961864C18.4246 -0.0325636 11.5883 -0.0263135 8.8258 0.0961864C6.3983 0.209936 4.25705 0.796186 2.5308 2.52244C-0.354198 5.40744 0.0145517 9.29494 0.0145517 14.9962C0.0145517 20.8312 -0.310448 24.6287 2.5308 27.4699C5.42705 30.3649 9.3708 29.9862 15.0046 29.9862C20.7846 29.9862 22.7796 29.9899 24.8233 29.1987C27.6021 28.1199 29.6996 25.6362 29.9046 21.1749C30.0346 18.4137 30.0271 11.5787 29.9046 8.81619C29.6571 3.54994 26.8308 0.356186 21.1846 0.0961864ZM25.5533 25.5612C23.6621 27.4524 21.0383 27.2837 14.9683 27.2837C8.7183 27.2837 6.21205 27.3762 4.3833 25.5424C2.27705 23.4462 2.6583 20.0799 2.6583 14.9762C2.6583 8.06994 1.94955 3.09619 8.8808 2.74119C10.4733 2.68494 10.9421 2.66619 14.9508 2.66619L15.0071 2.70369C21.6683 2.70369 26.8946 2.00619 27.2083 8.93619C27.2796 10.5174 27.2958 10.9924 27.2958 14.9949C27.2946 21.1724 27.4121 23.6937 25.5533 25.5612Z" fill="#BE9230"/>
<path d="M23.0072 8.79281C24.0007 8.79281 24.806 7.98748 24.806 6.99406C24.806 6.00064 24.0007 5.19531 23.0072 5.19531C22.0138 5.19531 21.2085 6.00064 21.2085 6.99406C21.2085 7.98748 22.0138 8.79281 23.0072 8.79281Z" fill="#BE9230"/>
</g>
<defs>
<clipPath id="clip0">
<rect width="30" height="30" fill="white"/>
</clipPath>
</defs>
</svg>

<svg width="30" height="30" fill="none" xmlns="http://www.w3.org/2000/svg"><g clip-path="url(#clip0)" fill="#BE9230"><path d="M15.005 7.297a7.697 7.697 0 00-7.698 7.697 7.697 7.697 0 007.698 7.698 7.697 7.697 0 007.697-7.698 7.697 7.697 0 00-7.697-7.697zm0 12.694a4.995 4.995 0 01-4.996-4.997 4.995 4.995 0 014.996-4.996A4.995 4.995 0 0120 14.994a4.994 4.994 0 01-4.996 4.997z"/><path d="M21.185.096c-2.76-.129-9.597-.122-12.36 0-2.427.114-4.568.7-6.294 2.426C-.354 5.407.015 9.295.015 14.996c0 5.835-.325 9.633 2.516 12.474 2.896 2.895 6.84 2.516 12.474 2.516 5.78 0 7.775.004 9.818-.787 2.78-1.08 4.877-3.563 5.082-8.024.13-2.761.122-9.596 0-12.359-.248-5.266-3.074-8.46-8.72-8.72zm4.368 25.465c-1.89 1.891-4.515 1.723-10.585 1.723-6.25 0-8.756.092-10.585-1.742-2.106-2.096-1.725-5.462-1.725-10.566 0-6.906-.708-11.88 6.223-12.235 1.592-.056 2.061-.075 6.07-.075l.056.038c6.661 0 11.888-.698 12.201 6.232.072 1.581.088 2.056.088 6.059-.001 6.177.116 8.699-1.743 10.566z"/><path d="M23.007 8.793a1.799 1.799 0 100-3.598 1.799 1.799 0 000 3.598z"/></g><defs><clipPath id="clip0"><path fill="#fff" d="M0 0h30v30H0z"/></clipPath></defs></svg>
